X: 25345
T: Many A Wild Night
R: polka
M: 2/4
K: Dmajor
|:Ad dB|AF GE|GB BA|GE GF|
Ad dB|AF GE|GB BA|D2 D2:|
|:Ad fa|ge e2|Ac eg|fd d/e/d/B/|
Ad fa|ge ed|ce ba|d2 dB:|

